X:117
T:Misty
C:Erroll Garner
N:TablEdited by John Baxter
L:1/8
Q:1/4=120
M:4/4
K:Eb
z4 z2 BG | D6 B,3/2C/ | z/_Dc/ z/ce/ z/cB/ z/GE/ | z/C3/2 z4 G,3/2A,/ | z/CE/ G/BB/ z/AB/ z2 | 
z/AG/ z2 z/GA/ z/BE/ | z2 z/EF/ z/GA/ z/C3/2 | z3/2D/ z3/2E/ z3/2F/ zz/G/ | z3B GF ED | 
B,2 z2 z/[f3/2c3/2E3/2A,3/2] z/[=e3/2_d3/2_G3/2=A,3/2] | z2 [f6B6D6G,6] | z6 BG | 
D6 B,3/2C/ | z/_Dc/ z/ce/ z/cB/ z/GE/ | z/C3/2 z4 G,3/2A,/ | z/CE/ G/BB/ z/AB/ z2 | 
z/AG/ z2 z/GA/ z/BE/ | z2 z/EF/ z/GA/ z/C3/2 | z3/2D/ z3/2E/ z3/2F/ zz/E/ | z8 | 
z/E3/2 z/F3/2 z/G3/2 z/B3/2 | z/c3/2 _d2 dc d2 | _de =e2 _e2 d2 | c2 z/e_d/ z/c3/2 z2 | 
E2 F2 G2 B2 | c2 dd c2 d2 | dd f2 dc B2 | z3B GF ED | B,2 z2 z/[e3/2A3/2C3/2] z/[=e3/2=A3/2_D3/2] | 
z2 [f6B6D6G,6] | z6 BG | D6 B,3/2C/ | z/_Dc/ z/ce/ z/cB/ z/GE/ | z/C3/2 z4 G,3/2A,/ | 
z/CE/ G/BB/ z/AB/ z2 | z/AG/ z2 z/GA/ z/BE/ | z2 z/EF/ z/GA/ z/C3/2 | z3/2D/ z3/2E/ z3/2F/ z2 | 
E8 | 


